X:16471
T:The Bellharbour Reel
R:reel
C:Chris Droney
S:Tune of the Month, Dec. 2001,Tune of the Month, Nov. 2001,Silver Apple News 8
Q:333
L:1/8
M:C|
K:G
DG G2 DGBd|g2 dg egdB|A2 AG AcBA|GBAF GFEG|!
DG G2 DGBd|g2 dg egdB|GA (3(Bcd) gedc|1(3(Bcd) AF G2 GE:|2(3(Bcd) AF GABc||!
|:dggf gGBd|gbaf gfed|eaag abag|eaag edBc|!
dggf gGBd|gbaf gedB|GA (3(Bcd) gedc|1(3(Bcd) AF GABc:|2(3(Bcd) AF G2 GE|]!
